assets/companies/light/yc.svg

<svg width="20" height="20" viewBox="0 0 20 20" fill="none" xmlns="http://www.w3.org/2000/svg">
<g opacity="0.5" id="Group">
<path id="Vector" d="M16 0H4C1.79086 0 0 1.79086 0 4V16C0 18.2091 1.79086 20 4 20H16C18.2091 20 20 18.2091 20 16V4C20 1.79086 18.2091 0 16 0Z" fill="#86848D"/>
<path id="Vector_2" d="M9.32544 12.1538C9.32544 11.5986 9.18869 11.0521 8.92726 10.5623L6.4311 5.88625C6.18722 5.4294 6.51826 4.87744 7.03612 4.87744C7.29666 4.87744 7.53469 5.02506 7.65049 5.25844L9.48078 8.94718C9.51185 9.01966 9.54809 9.09474 9.58951 9.17241C9.61569 9.22149 9.6398 9.2716 9.66184 9.32275C9.68747 9.38224 9.72079 9.43846 9.74485 9.49861C9.7552 9.5245 9.76556 9.5478 9.77591 9.56851C9.82769 9.67206 9.87429 9.77303 9.91571 9.87141C9.95812 9.97213 10.1028 9.97734 10.1501 9.87878C10.1967 9.7814 10.2455 9.68056 10.2963 9.57627C10.3947 9.37434 10.4956 9.16464 10.5992 8.94718L12.4722 5.22956C12.581 5.01365 12.8021 4.87744 13.0439 4.87744C13.5269 4.87744 13.8359 5.39195 13.609 5.81833L11.0349 10.6548C10.7794 11.1348 10.6458 11.6703 10.6458 12.2142V14.8731C10.6458 15.2377 10.3502 15.5333 9.98561 15.5333C9.62101 15.5333 9.32544 15.2377 9.32544 14.8731V12.1538Z" fill="#131217"/>
</g>
</svg>

<svg xmlns="http://www.w3.org/2000/svg" width="20" height="20" fill="none" viewBox="0 0 20 20"><g opacity=".5"><path fill="#86848D" d="M16 0H4a4 4 0 0 0-4 4v12a4 4 0 0 0 4 4h12a4 4 0 0 0 4-4V4a4 4 0 0 0-4-4"/><path fill="#131217" d="M9.325 12.154a3.4 3.4 0 0 0-.398-1.592L6.431 5.886a.686.686 0 1 1 1.22-.628l1.83 3.69q.046.108.109.224.039.075.072.15c.025.06.059.116.083.177l.03.07q.08.155.14.302c.043.101.188.106.235.008l.146-.303q.149-.303.303-.629l1.873-3.717a.64.64 0 1 1 1.137.588l-2.574 4.837a3.3 3.3 0 0 0-.39 1.56v2.658a.66.66 0 0 1-1.32 0z"/></g></svg>
